assets/recovery.svg

<svg fill="none" height="17" viewBox="0 0 15 17" width="15" xmlns="http://www.w3.org/2000/svg"><path d="m14.3977 2.65606c-.001-.06252-.0151-.12412-.0414-.18086s-.0641-.10736-.1111-.14861c-.0491-.04092-.1062-.07104-.1677-.08839-.0615-.01734-.126-.02153-.1892-.01228-.0366 0-3.7248.5125-6.32085-2.095755-.08693-.0835204-.20281-.130165-.32336-.130165-.12056 0-.23643.0466446-.32337.130165-2.59605 2.608255-6.284219 2.101855-6.320826 2.095755-.063003-.00874-.127123-.00459-.188476.01219-.061352.01678-.118658.04585-.168443.08543-.049574.04069-.090105.09129-.118997.14854-.0288916.05726-.0455084.11992-.0487861.18398-.164732 3.29769-.1982889 7.93154 1.4215781 10.16154 1.66867 2.2879 4.97552 3.9658 5.52157 4.1488.14716.0448.30433.0448.45149 0 .54606-.1708 3.85287-1.8609 5.52157-4.1488 1.6046-2.2239 1.5589-6.86385 1.4063-10.16154zm-2.1628 9.62154c-1.3972 1.9188-4.32273 3.5418-5.00607 3.798-.68333-.244-3.60885-1.8761-5.00602-3.798-1.397172-1.9218-1.400223-5.98829-1.272098-9.09989 1.140918.06101 3.965768-.02441 6.278118-2.09271 2.30625 2.0683 5.14027 2.15372 6.27817 2.09271.1281 3.1116.1067 7.20859-1.2721 9.09989zm-5.00607-6.62586c-.40292-.00278-.79314.14086-1.0981.40421-.30495.26334-.5039.62848-.55984 1.02751s.03494.80479.25573 1.14184.55647.58245.94462.69057v1.97073c0 .1213.04821.2377.13403.3235.08581.0858.2022.134.32356.134s.23775-.0482.32357-.134c.08581-.0858.13402-.2022.13402-.3235v-1.97073c.38815-.10812.72384-.35352.94463-.69057s.31166-.74281.25572-1.14184c-.05593-.39903-.25488-.76417-.55984-1.02751-.30496-.26335-.69518-.40699-1.0981-.40421zm0 2.41607c-.14842 0-.29351-.04402-.41692-.12648s-.2196-.19966-.2764-.33678c-.0568-.13713-.07166-.28802-.0427-.43359.02895-.14558.10043-.27929.20538-.38424.10495-.10496.23867-.17643.38424-.20538.14557-.02896.29646-.0141.43359.0427.13712.0568.25433.15299.33679.2764s.12647.2685.12647.41692c0 .19903-.07907.38991-.2198.53065-.14074.14073-.33162.2198-.53065.2198z" fill="#fff"/></svg>

<svg width="15" height="17" viewBox="0 0 15 17" fill="none" xmlns="http://www.w3.org/2000/svg">
<path d="M14.3977 2.65606C14.3967 2.59354 14.3826 2.53194 14.3563 2.4752C14.33 2.41846 14.2922 2.36784 14.2452 2.32659C14.1961 2.28567 14.139 2.25555 14.0775 2.2382C14.016 2.22086 13.9515 2.21667 13.8883 2.22592C13.8517 2.22592 10.1635 2.73842 7.56745 0.130165C7.48052 0.0466446 7.36464 0 7.24409 0C7.12353 0 7.00766 0.0466446 6.92072 0.130165C4.32467 2.73842 0.636501 2.23202 0.599894 2.22592C0.536891 2.21718 0.472771 2.22133 0.411418 2.23811C0.350066 2.25489 0.29276 2.28396 0.242975 2.32354C0.193401 2.36423 0.15287 2.41483 0.123978 2.47208C0.0950864 2.52934 0.0784696 2.592 0.0751919 2.65606C-0.0895401 5.95375 -0.123097 10.5876 1.49677 12.8176C3.16544 15.1055 6.47229 16.7834 7.01834 16.9664C7.1655 17.0112 7.32267 17.0112 7.46983 16.9664C8.01589 16.7956 11.3227 15.1055 12.9914 12.8176C14.596 10.5937 14.5503 5.95375 14.3977 2.65606ZM12.2349 12.2776C10.8377 14.1964 7.91217 15.8194 7.22883 16.0756C6.5455 15.8316 3.61998 14.1995 2.22281 12.2776C0.825638 10.3558 0.822587 6.28931 0.950712 3.17771C2.09163 3.23872 4.91648 3.1533 7.22883 1.085C9.53508 3.1533 12.3691 3.23872 13.507 3.17771C13.6351 6.28931 13.6137 10.3863 12.2349 12.2776ZM7.22883 5.65174C6.82591 5.64896 6.43569 5.7926 6.13073 6.05595C5.82578 6.31929 5.62683 6.68443 5.57089 7.08346C5.51495 7.48249 5.60583 7.88825 5.82662 8.2253C6.04741 8.56235 6.38309 8.80775 6.77124 8.91587V10.8866C6.77124 11.0079 6.81945 11.1243 6.90527 11.2101C6.99108 11.2959 7.10747 11.3441 7.22883 11.3441C7.35019 11.3441 7.46658 11.2959 7.5524 11.2101C7.63821 11.1243 7.68642 11.0079 7.68642 10.8866V8.91587C8.07457 8.80775 8.41026 8.56235 8.63105 8.2253C8.85184 7.88825 8.94271 7.48249 8.88677 7.08346C8.83084 6.68443 8.63189 6.31929 8.32693 6.05595C8.02197 5.7926 7.63175 5.64896 7.22883 5.65174ZM7.22883 8.06781C7.08041 8.06781 6.93532 8.02379 6.81191 7.94133C6.6885 7.85887 6.59231 7.74167 6.53551 7.60455C6.47871 7.46742 6.46385 7.31653 6.49281 7.17096C6.52176 7.02538 6.59324 6.89167 6.69819 6.78672C6.80314 6.68176 6.93686 6.61029 7.08243 6.58134C7.228 6.55238 7.37889 6.56724 7.51602 6.62404C7.65314 6.68084 7.77035 6.77703 7.85281 6.90044C7.93527 7.02385 7.97928 7.16894 7.97928 7.31736C7.97928 7.51639 7.90021 7.70727 7.75948 7.84801C7.61874 7.98874 7.42786 8.06781 7.22883 8.06781Z" fill="white"/>
</svg>
